SVG/ico__world.svg

<svg xmlns="http://www.w3.org/2000/svg" viewBox="0 0 240 240">
  <path d="M132.39,40.96c-4.04-.63-8.18-.96-12.39-.96s-8.35.33-12.39.96c-38.25,5.97-67.61,39.14-67.61,79.04s29.36,73.06,67.61,79.04c4.04.63,8.18.96,12.39.96s8.35-.33,12.39-.96c38.25-5.97,67.61-39.14,67.61-79.04s-29.36-73.06-67.61-79.04ZM120,60.26c3.75,7.66,8.03,17.91,11.05,29.74h-22.1c3.02-11.83,7.3-22.08,11.05-29.74ZM96.02,65.02c-2.89,7.37-5.62,15.79-7.64,24.98h-20.3c6.39-11.02,16.19-19.83,27.95-24.98ZM60.85,130c-.55-3.25-.85-6.59-.85-10s.3-6.75.85-10h24.55c-.25,3.28-.4,6.61-.4,10s.15,6.72.4,10h-24.55ZM68.07,150h20.3c2.02,9.2,4.75,17.62,7.64,24.98-11.76-5.15-21.55-13.96-27.95-24.98ZM120,179.74c-3.75-7.66-8.03-17.91-11.05-29.74h22.1c-3.02,11.83-7.3,22.08-11.05,29.74ZM134.53,130h-29.05c-.3-3.28-.47-6.61-.47-10s.18-6.72.47-10h29.05c.3,3.28.47,6.61.47,10s-.18,6.72-.47,10ZM171.93,90h-20.3c-2.02-9.2-4.75-17.62-7.64-24.98,11.76,5.15,21.55,13.96,27.95,24.98ZM143.98,174.98c2.89-7.37,5.62-15.79,7.64-24.98h20.3c-6.39,11.02-16.19,19.83-27.95,24.98ZM154.6,130c.25-3.28.4-6.61.4-10s-.15-6.72-.4-10h24.55c.55,3.25.85,6.59.85,10s-.3,6.75-.85,10h-24.55Z"/>
</svg>

<svg width="240" height="240" viewBox="0 0 240 240" fill="none" xmlns="http://www.w3.org/2000/svg">
<path d="M132.39 40.96C128.35 40.33 124.21 40 120 40C115.79 40 111.65 40.33 107.61 40.96C69.36 46.94 40 80.1 40 120C40 159.9 69.36 193.06 107.61 199.04C111.65 199.67 115.79 200 120 200C124.21 200 128.35 199.67 132.39 199.04C170.64 193.07 200 159.9 200 120C200 80.1 170.64 46.94 132.39 40.96ZM120 60.26C123.75 67.92 128.03 78.17 131.05 90H108.95C111.97 78.17 116.25 67.92 120 60.26ZM96.02 65.02C93.13 72.39 90.4 80.81 88.38 90H68.08C74.47 78.98 84.27 70.17 96.03 65.02H96.02ZM60.85 130C60.3 126.75 60 123.41 60 120C60 116.59 60.3 113.25 60.85 110H85.4C85.15 113.28 85 116.61 85 120C85 123.39 85.15 126.72 85.4 130H60.85ZM68.07 150H88.37C90.39 159.2 93.12 167.62 96.01 174.98C84.25 169.83 74.46 161.02 68.06 150H68.07ZM120 179.74C116.25 172.08 111.97 161.83 108.95 150H131.05C128.03 161.83 123.75 172.08 120 179.74ZM134.53 130H105.48C105.18 126.72 105.01 123.39 105.01 120C105.01 116.61 105.19 113.28 105.48 110H134.53C134.83 113.28 135 116.61 135 120C135 123.39 134.82 126.72 134.53 130ZM171.93 90H151.63C149.61 80.8 146.88 72.38 143.99 65.02C155.75 70.17 165.54 78.98 171.94 90H171.93ZM143.98 174.98C146.87 167.61 149.6 159.19 151.62 150H171.92C165.53 161.02 155.73 169.83 143.97 174.98H143.98ZM154.6 130C154.85 126.72 155 123.39 155 120C155 116.61 154.85 113.28 154.6 110H179.15C179.7 113.25 180 116.59 180 120C180 123.41 179.7 126.75 179.15 130H154.6Z" fill="black"/>
</svg>
